colour_boost.cube
TITLE "Made by ke5hh"
LUT_3D_SIZE 9
0 0 0
0.0728466 0 0
0.145693 0 0
0.220233 0 0
0.302113 0 0
0.388235 0 0
0.478599 0 0
0.57319 0 0
0.672023 0 0
0 0.0728466 0
0.0913863 0.0913863 0
0.176043 0.0581674 0
0.258152 0.0276951 0
0.342321 0 0
0.429938 0 0
0.521416 0 0
0.616953 0 0
0.716609 0 0
0 0.145693 0
0.0581674 0.176043 0
0.186252 0.186252 0
0.279454 0.154726 0
0.370306 0.122377 0
0.462058 0.090837 0
0.556344 0.0597086 0
0.653941 0.0284886 0
0.755199 0 0
0 0.220233 0
0.0276951 0.258152 0
0.154726 0.279454 0
0.287556 0.287556 0
0.386343 0.257008 0
0.484123 0.224826 0
0.582803 0.192599 0
0.683635 0.160555 0
0.787411 0.128435 0
0 0.302113 0
0 0.342321 0
0.122377 0.370306 0
0.257008 0.386343 0
0.394339 0.394339 0
0.498009 0.36463 0
0.601663 0.33312 0
0.706523 0.301076 0
0.813504 0.268849 0
0 0.388235 0
0 0.429938 0
0.090837 0.462058 0
0.224826 0.484123 0
0.36463 0.498009 0
0.506569 0.506569 0
0.614816 0.477607 0
0.723796 0.446891 0
0.834287 0.415366 0
0 0.478599 0
0 0.521416 0
0.0597086 0.556344 0
0.192599 0.582803 0
0.33312 0.601663 0
0.477607 0.614816 0
0.624277 0.624277 0
0.73695 0.595972 0
0.850874 0.566033 0
0 0.57319 0
0 0.616953 0
0.0284886 0.653941 0
0.160555 0.683635 0
0.301076 0.706523 0
0.446891 0.723796 0
0.595972 0.73695 0
0.747433 0.747433 0
0.864439 0.719753 0
0 0.672023 0
0 0.716609 0
0 0.755199 0
0.128435 0.787411 0
0.268849 0.813504 0
0.415366 0.834287 0
0.566033 0.850874 0
0.719753 0.864439 0
0.876036 0.876036 0
0 0 0.0728466
0.0913863 0 0.0913863
0.176043 0 0.0581674
0.258152 0 0.0276951
0.342321 0 0
0.429938 0 0
0.521416 0 0
0.616953 0 0
0.716609 0 0
0 0.0913863 0.0913863
0.124987 0.124987 0.124987
0.214786 0.070985 0.070985
0.298436 0.0320287 0.0320287
0.383413 0 0
0.471611 0 0
0.563607 0 0
0.659632 0 0
0.759762 0 0
0 0.176043 0.0581674
0.070985 0.214786 0.070985
0.22266 0.22266 0.073579
0.319936 0.177127 0.0343328
0.411368 0.135943 0
0.503227 0.0989242 0
0.597604 0.0641337 0
0.695323 0.0302892 0
0.796796 0 0
0 0.258152 0.0276951
0.0320287 0.298436 0.0320287
0.177127 0.319936 0.0343328
0.323003 0.323003 0.0346532
0.424887 0.282658 0
0.523552 0.243137 0
0.622446 0.205707 0
0.723354 0.169879 0
0.827192 0.13492 0
0 0.342321 0
0 0.383413 0
0.135943 0.411368 0
0.282658 0.424887 0
0.428275 0.428275 0
0.534264 0.39118 0
0.638849 0.353704 0
0.744045 0.317067 0
0.851148 0.2813 0
0 0.429938 0
0 0.471611 0
0.0989242 0.503227 0
0.243137 0.523552 0
0.39118 0.534264 0
0.538872 0.538872 0
0.648844 0.504036 0
0.758633 0.468391 0
0.869474 0.432883 0
0 0.521416 0
0 0.563607 0
0.0641337 0.597604 0
0.205707 0.622446 0
0.353704 0.638849 0
0.504036 0.648844 0
0.654856 0.654856 0
0.768795 0.621744 0
0.883391 0.587671 0
0 0.616953 0
0 0.659632 0
0.0302892 0.695323 0
0.169879 0.723354 0
0.317067 0.744045 0
0.468391 0.758633 0
0.621744 0.768795 0
0.776287 0.776287 0
0.894209 0.744533 0
0 0.716609 0
0 0.759762 0
0 0.796796 0
0.13492 0.827192 0
0.2813 0.851148 0
0.432883 0.869474 0
0.587671 0.883391 0
0.744533 0.894209 0
0.903151 0.903151 0
0 0 0.145693
0.0581674 0 0.176043
0.186252 0 0.186252
0.279454 0 0.154726
0.370306 0 0.122377
0.462058 0 0.090837
0.556344 0 0.0597086
0.653941 0 0.0284886
0.755199 0 0
0 0.0581674 0.176043
0.070985 0.070985 0.214786
0.22266 0.073579 0.22266
0.319936 0.0343328 0.177127
0.411368 0 0.135943
0.503227 0 0.0989242
0.597604 0 0.0641337
0.695323 0 0.0302892
0.796796 0 0
0 0.186252 0.186252
0.073579 0.22266 0.22266
0.249989 0.249989 0.249989
0.347997 0.192676 0.192676
0.441657 0.145953 0.145953
0.535348 0.105241 0.105241
0.631128 0.0677348 0.0677348
0.729976 0.0317998 0.0317998
0.832364 0 0
0 0.279454 0.154726
0.0343328 0.319936 0.177127
0.192676 0.347997 0.192676
0.352468 0.352468 0.195148
0.456733 0.303838 0.150942
0.5561 0.258244 0.109316
0.655558 0.216648 0.0703441
0.756985 0.177768 0.0329747
0.861326 0.14049 0
0 0.370306 0.122377
0 0.411368 0.135943
0.145953 0.441657 0.145953
0.303838 0.456733 0.150942
0.457557 0.457557 0.151217
0.565545 0.414084 0.111177
0.670817 0.371405 0.0719921
0.776349 0.330831 0.033814
0.883711 0.292058 0
0 0.462058 0.090837
0 0.503227 0.0989242
0.105241 0.535348 0.105241
0.258244 0.5561 0.109316
0.414084 0.565545 0.111177
0.567147 0.567147 0.111482
0.678614 0.527169 0.0728313
0.789029 0.48716 0.0343633
0.900175 0.448173 0
0 0.556344 0.0597086
0 0.597604 0.0641337
0.0677348 0.631128 0.0677348
0.216648 0.655558 0.0703441
0.371405 0.670817 0.0719921
0.527169 0.678614 0.0728313
0.681773 0.681773 0.073167
0.796796 0.644373 0.034699
0.911894 0.606622 0
0 0.653941 0.0284886
0 0.695323 0.0302892
0.0317998 0.729976 0.0317998
0.177768 0.756985 0.0329747
0.330831 0.776349 0.033814
0.48716 0.789029 0.0343633
0.644373 0.796796 0.034699
0.801663 0.801663 0.0349126
0.920333 0.766293 0
0 0.755199 0
0 0.796796 0
0 0.832364 0
0.14049 0.861326 0
0.292058 0.883711 0
0.448157 0.900175 0
0.606622 0.911894 0
0.766293 0.920333 0
0.926909 0.926909 0
0 0 0.220233
0.0276951 0 0.258152
0.154726 0 0.279454
0.287556 0 0.287556
0.386343 0 0.257008
0.484123 0 0.224826
0.582803 0 0.192599
0.683635 0 0.160555
0.787411 0 0.128435
0 0.0276951 0.258152
0.0320134 0.0320287 0.298436
0.177127 0.0343328 0.319936
0.323003 0.0346532 0.323003
0.424887 0 0.282658
0.523552 0 0.243137
0.622446 0 0.205707
0.723354 0 0.169879
0.827192 0 0.13492
0 0.154726 0.279454
0.0343328 0.177127 0.319936
0.192676 0.192676 0.347997
0.352468 0.195148 0.352468
0.456733 0.150942 0.303838
0.5561 0.109316 0.258244
0.655558 0.0703441 0.216648
0.756985 0.0329747 0.177768
0.861326 0 0.14049
0 0.287556 0.287556
0.0346532 0.323003 0.323003
0.195148 0.352468 0.352468
0.37499 0.37499 0.37499
0.47837 0.318227 0.318227
0.579355 0.269047 0.269047
0.680568 0.224918 0.224918
0.783551 0.184009 0.184009
0.889204 0.145037 0.145037
0 0.386343 0.257008
0 0.424887 0.282658
0.150942 0.456733 0.303838
0.318227 0.47837 0.318227
0.481453 0.481453 0.320272
0.590723 0.432517 0.274327
0.696483 0.385611 0.230182
0.802594 0.342016 0.188479
0.910628 0.300954 0.148531
0 0.484123 0.224826
0 0.523552 0.243137
0.109316 0.5561 0.258244
0.269047 0.579355 0.269047
0.432517 0.590723 0.274327
0.590906 0.590906 0.274403
0.703593 0.546578 0.232532
0.814466 0.502861 0.191272
0.925933 0.46099 0.151034
0 0.582803 0.192599
0 0.622446 0.205707
0.0703441 0.655558 0.216648
0.224918 0.680568 0.224918
0.385611 0.696483 0.230182
0.546578 0.703593 0.232532
0.704692 0.704692 0.232883
0.82063 0.663645 0.192721
0.93611 0.622736 0.152697
0 0.683635 0.160555
0 0.723354 0.169879
0.0329747 0.756985 0.177768
0.184009 0.783551 0.184009
0.342016 0.802594 0.188479
0.502861 0.814466 0.191272
0.663645 0.82063 0.192721
0.823377 0.823377 0.193362
0.942657 0.784878 0.153765
0 0.787411 0.128435
0 0.827192 0.13492
0 0.861326 0.14049
0.145037 0.889204 0.145037
0.300954 0.910628 0.148531
0.46099 0.925933 0.151034
0.622736 0.93611 0.152697
0.784878 0.942657 0.153765
0.947204 0.947204 0.154498
0 0 0.302113
0 0 0.342321
0.122377 0 0.370306
0.257008 0 0.386343
0.394339 0 0.394339
0.498009 0 0.36463
0.601663 0 0.33312
0.706523 0 0.301076
0.813504 0 0.268864
0 0 0.342321
0 0 0.383413
0.135943 0 0.411368
0.282658 0 0.424887
0.428275 0 0.428275
0.534264 0 0.39118
0.638849 0 0.353704
0.744045 0 0.317067
0.851148 0 0.2813
0 0.122377 0.370306
0 0.135943 0.411368
0.145953 0.145953 0.441657
0.303838 0.150942 0.456733
0.457557 0.151217 0.457557
0.565545 0.111177 0.414084
0.670817 0.0719921 0.371405
0.776349 0.033814 0.330831
0.883711 0 0.292058
0 0.257008 0.386343
0 0.282658 0.424887
0.150942 0.303838 0.456733
0.318227 0.318227 0.47837
0.481437 0.320272 0.481453
0.590723 0.274327 0.432517
0.696483 0.230182 0.385611
0.802594 0.188479 0.342016
0.910628 0.148531 0.300954
0 0.394339 0.394339
0 0.428275 0.428275
0.151217 0.457557 0.457557
0.320272 0.481453 0.481453
0.499992 0.499992 0.499992
0.607752 0.448737 0.448737
0.71458 0.395636 0.395636
0.822141 0.350347 0.350347
0.931548 0.307866 0.307866
0 0.498009 0.36463
0 0.534264 0.39118
0.111177 0.565545 0.414084
0.274327 0.590723 0.432517
0.448737 0.607752 0.448737
0.610086 0.610086 0.450462
0.723384 0.561944 0.400504
0.834516 0.515251 0.355612
0.946471 0.471214 0.312795
0 0.601663 0.33312
0 0.638849 0.353704
0.0719921 0.670817 0.371405
0.230182 0.696483 0.385611
0.395636 0.71458 0.395636
0.561944 0.723384 0.400504
0.723568 0.723568 0.40061
0.840177 0.679469 0.358022
0.955901 0.63592 0.315923
0 0.706523 0.301076
0 0.744045 0.317067
0.033814 0.776349 0.330831
0.188479 0.802594 0.342016
0.350347 0.822141 0.350347
0.515251 0.834516 0.355612
0.679469 0.840177 0.358022
0.841398 0.841398 0.358541
0.961151 0.800275 0.317647
0 0.813504 0.268849
0 0.851148 0.2813
0 0.883711 0.292058
0.148531 0.910628 0.300954
0.307866 0.931548 0.307866
0.471214 0.946471 0.312795
0.63592 0.955901 0.315923
0.800275 0.961151 0.317647
0.96405 0.96405 0.318608
0 0 0.388235
0 0 0.429938
0.090837 0 0.462058
0.224826 0 0.484123
0.36463 0 0.498009
0.506569 0 0.506569
0.614816 0 0.477607
0.723796 0 0.446891
0.834287 0 0.415366
0 0 0.429938
0 0 0.471611
0.0989242 0 0.503227
0.243137 0 0.523552
0.39118 0 0.534264
0.538872 0 0.538872
0.648844 0 0.504036
0.758633 0 0.468391
0.869474 0 0.432883
0 0.090837 0.462058
0 0.0989242 0.503227
0.105241 0.105241 0.535348
0.258244 0.109316 0.5561
0.414084 0.111177 0.565545
0.567147 0.111482 0.567147
0.678614 0.0728313 0.527169
0.789029 0.0343633 0.48716
0.900175 0 0.448173
0 0.224826 0.484123
0 0.243137 0.523552
0.109316 0.258244 0.5561
0.269047 0.269047 0.579355
0.432517 0.274327 0.590723
0.590906 0.274403 0.590906
0.703593 0.232532 0.546578
0.814466 0.191272 0.502861
0.925933 0.151034 0.46099
0 0.36463 0.498009
0 0.39118 0.534264
0.111177 0.414084 0.565545
0.274327 0.432517 0.590723
0.448737 0.448737 0.607752
0.610086 0.450462 0.610086
0.723384 0.400504 0.561944
0.834516 0.355612 0.515251
0.946471 0.312795 0.471214
0 0.506569 0.506569
0 0.538872 0.538872
0.111482 0.567147 0.567147
0.274403 0.590906 0.590906
0.450462 0.610086 0.610086
0.624994 0.624994 0.624994
0.736675 0.582361 0.582361
0.848508 0.523888 0.523888
0.961593 0.478752 0.478752
0 0.614816 0.477607
0 0.648844 0.504036
0.0728313 0.678614 0.527169
0.232532 0.703593 0.546578
0.400504 0.723384 0.561944
0.582361 0.736675 0.582361
0.738567 0.738567 0.583856
0.85536 0.691737 0.528115
0.971191 0.646082 0.483528
0 0.723796 0.446891
0 0.758633 0.468391
0.0343633 0.789029 0.48716
0.191272 0.814466 0.502861
0.355612 0.834516 0.515251
0.523888 0.848508 0.523888
0.691737 0.85536 0.528115
0.855833 0.855833 0.52842
0.975875 0.812528 0.485863
0 0.834287 0.415366
0 0.869474 0.432883
0 0.900175 0.448173
0.151034 0.925933 0.46099
0.312795 0.946471 0.471214
0.478752 0.961593 0.478752
0.646082 0.971191 0.483528
0.812528 0.975875 0.485863
0.977539 0.977539 0.486686
0 0 0.478599
0 0 0.521416
0.0597086 0 0.556344
0.192599 0 0.582803
0.33312 0 0.601663
0.477607 0 0.614832
0.624277 0 0.624277
0.73695 0 0.595972
0.850874 0 0.566033
0 0 0.521416
0 0 0.563607
0.0641337 0 0.597604
0.205707 0 0.622446
0.353704 0 0.638849
0.504036 0 0.648844
0.654856 0 0.654856
0.768795 0 0.621744
0.883391 0 0.587671
0 0.0597086 0.556344
0 0.0641337 0.597604
0.0677348 0.0677348 0.631128
0.216648 0.0703441 0.655558
0.371405 0.0719921 0.670817
0.527169 0.0728313 0.678614
0.681773 0.073167 0.681773
0.796796 0.034699 0.644373
0.911894 0 0.606622
0 0.192599 0.582803
0 0.205707 0.622446
0.0703441 0.216648 0.655558
0.224918 0.224918 0.680568
0.385611 0.230182 0.696483
0.546578 0.232532 0.703593
0.704692 0.232883 0.704692
0.82063 0.192721 0.663645
0.93611 0.152697 0.622736
0 0.33312 0.601663
0 0.353704 0.638849
0.0719921 0.371405 0.670817
0.230182 0.385611 0.696483
0.395636 0.395636 0.71458
0.561944 0.400504 0.723384
0.723568 0.40061 0.723568
0.840177 0.358022 0.679469
0.955901 0.315923 0.63592
0 0.477607 0.614816
0 0.504036 0.648844
0.0728313 0.527169 0.678614
0.232532 0.546578 0.703593
0.400504 0.561944 0.723384
0.582361 0.582361 0.736675
0.738567 0.583856 0.738567
0.85536 0.528115 0.691737
0.971191 0.483528 0.646082
0 0.624277 0.624277
0 0.654856 0.654856
0.073167 0.681773 0.681773
0.232883 0.704692 0.704692
0.40061 0.723568 0.723568
0.583856 0.738567 0.738567
0.749996 0.749996 0.749996
0.86537 0.714519 0.714519
0.981674 0.653056 0.653056
0 0.73695 0.595972
0 0.768795 0.621744
0.034699 0.796796 0.644373
0.192721 0.82063 0.663645
0.358022 0.840177 0.679469
0.528115 0.85536 0.691737
0.714519 0.86537 0.714519
0.866941 0.866941 0.715831
0.986908 0.821729 0.656535
0 0.850874 0.566033
0 0.883391 0.587671
0 0.911894 0.606622
0.152697 0.93611 0.622736
0.315923 0.955901 0.63592
0.483528 0.971191 0.646082
0.653056 0.981674 0.653056
0.821729 0.986908 0.656535
0.987854 0.987854 0.65716
0 0 0.57319
0 0 0.616953
0.0284886 0 0.653941
0.160555 0 0.683635
0.301076 0 0.706523
0.446891 0 0.723796
0.595972 0 0.73695
0.747433 0 0.747433
0.864439 0 0.719753
0 0 0.616953
0 0 0.659632
0.0302892 0 0.695323
0.169879 0 0.723354
0.317067 0 0.744045
0.468391 0 0.758633
0.621744 0 0.768795
0.776287 0 0.776287
0.894209 0 0.744533
0 0.0284886 0.653941
0 0.0302892 0.695323
0.0317998 0.0317998 0.729976
0.177768 0.0329747 0.756985
0.330831 0.033814 0.776349
0.48716 0.0343633 0.789029
0.644373 0.034699 0.796796
0.801663 0.0349126 0.801663
0.920333 0 0.766293
0 0.160555 0.683635
0 0.169879 0.723354
0.0329747 0.177768 0.756985
0.184009 0.184009 0.783551
0.342016 0.188479 0.802594
0.502861 0.191272 0.814466
0.663645 0.192721 0.82063
0.823377 0.193362 0.823377
0.942657 0.153765 0.784878
0 0.301076 0.706523
0 0.317067 0.744045
0.033814 0.330831 0.776349
0.188479 0.342016 0.802594
0.350347 0.350347 0.822141
0.515251 0.355612 0.834516
0.679469 0.358022 0.840177
0.841398 0.358541 0.841398
0.961151 0.317647 0.800275
0 0.446891 0.723796
0 0.468391 0.758633
0.0343633 0.48716 0.789029
0.191272 0.502861 0.814466
0.355612 0.515251 0.834516
0.523888 0.523888 0.848508
0.691737 0.528115 0.85536
0.855833 0.52842 0.855833
0.975875 0.485863 0.812528
0 0.595972 0.73695
0 0.621744 0.768795
0.034699 0.644373 0.796796
0.192721 0.663645 0.82063
0.358022 0.679469 0.840177
0.528115 0.691737 0.85536
0.714519 0.714519 0.86537
0.866941 0.715831 0.866941
0.986908 0.656535 0.821729
0 0.747433 0.747433
0 0.776287 0.776287
0.0349126 0.801663 0.801663
0.193362 0.823377 0.823377
0.358541 0.841398 0.841398
0.52842 0.855833 0.855833
0.715831 0.866941 0.866941
0.874998 0.874998 0.874998
0.993896 0.845731 0.845731
0 0.864439 0.719753
0 0.894209 0.744533
0 0.920333 0.766293
0.153765 0.942657 0.784878
0.317647 0.961151 0.800275
0.485863 0.975875 0.812528
0.656535 0.986908 0.821729
0.845731 0.993896 0.845731
0.995254 0.995254 0.846891
0 0 0.672023
0 0 0.716609
0 0 0.755199
0.128435 0 0.787411
0.268849 0 0.813504
0.415366 0 0.834287
0.566033 0 0.850874
0.719753 0 0.864439
0.876036 0 0.876036
0 0 0.716609
0 0 0.759762
0 0 0.796796
0.13492 0 0.827192
0.2813 0 0.851148
0.432883 0 0.869474
0.587671 0 0.883391
0.744533 0 0.894209
0.903151 0 0.903151
0 0 0.755199
0 0 0.796796
0 0 0.832364
0.14049 0 0.861326
0.292058 0 0.883711
0.448173 0 0.900175
0.606622 0 0.911894
0.766293 0 0.920333
0.926909 0 0.926909
0 0.128435 0.787411
0 0.13492 0.827192
0 0.14049 0.861326
0.145037 0.145037 0.889204
0.300954 0.148531 0.910628
0.46099 0.151034 0.925933
0.622736 0.152697 0.93611
0.784878 0.153765 0.942657
0.947204 0.154498 0.947204
0 0.268849 0.813504
0 0.2813 0.851148
0 0.292058 0.883711
0.148531 0.300954 0.910628
0.307866 0.307866 0.931548
0.471214 0.312795 0.946471
0.63592 0.315923 0.955901
0.800275 0.317647 0.961151
0.96405 0.318608 0.96405
0 0.415366 0.834287
0 0.432883 0.869474
0 0.448173 0.900175
0.151034 0.46099 0.925933
0.312795 0.471214 0.946471
0.478752 0.478752 0.961593
0.646082 0.483528 0.971191
0.812528 0.485863 0.975875
0.977539 0.486686 0.977539
0 0.566033 0.850874
0 0.587671 0.883391
0 0.606622 0.911894
0.152697 0.622736 0.93611
0.315923 0.63592 0.955901
0.483528 0.646082 0.971191
0.653056 0.653056 0.981674
0.821729 0.656535 0.986908
0.987854 0.65716 0.987854
0 0.719753 0.864439
0 0.744533 0.894209
0 0.766293 0.920333
0.153765 0.784878 0.942657
0.317647 0.800275 0.961151
0.485863 0.812528 0.975875
0.656535 0.821729 0.986908
0.845731 0.845731 0.993896
0.995254 0.846891 0.995254
0 0.876036 0.876036
0 0.903151 0.903151
0 0.926909 0.926909
0.154498 0.947204 0.947204
0.318608 0.96405 0.96405
0.486686 0.977539 0.977539
0.65716 0.987854 0.987854
0.846891 0.995254 0.995254
1 1 1
