colour_boost.cube
TITLE "Made by ke5hh"
LUT_3D_SIZE 33
0 0 0
0.018204 0 0
0.0364233 0 0
0.0546273 0 0
0.0728466 0 0
0.0910506 0 0
0.10927 0 0
0.127474 0 0
0.145693 0 0
0.163912 0 0
0.182116 0 0
0.200412 0 0
0.220233 0 0
0.240299 0 0
0.260639 0 0
0.281239 0 0
0.302113 0 0
0.323247 0 0
0.34464 0 0
0.366308 0 0
0.388235 0 0
0.410422 0 0
0.432883 0 0
0.455604 0 0
0.478599 0 0
0.501839 0 0
0.525353 0 0
0.549142 0 0
0.57319 0 0
0.597498 0 0
0.62208 0 0
0.646922 0 0
0.672023 0 0
0 0.018204 0
0.0228428 0.0228428 0
0.0437934 0.0144656 0
0.0629435 0.00674449 0
0.0815747 0 0
0.100023 0 0
0.118364 0 0
0.136675 0 0
0.154955 0 0
0.17322 0 0
0.191546 0 0
0.211154 0 0
0.231022 0 0
0.251164 0 0
0.27155 0 0
0.29221 0 0
0.313115 0 0
0.334295 0 0
0.355749 0 0
0.377447 0 0
0.39942 0 0
0.421653 0 0
0.44416 0 0
0.466911 0 0
0.489937 0 0
0.513237 0 0
0.536782 0 0
0.560616 0 0
0.584695 0 0
0.609049 0 0
0.633661 0 0
0.658534 0 0
0.68368 0 0
0 0.0364233 0
0.0144656 0.0437934 0
0.0456855 0.0456855 0
0.0674296 0.0373388 0
0.0876173 0.0289464 0
0.106966 0.0210269 0
0.125902 0.0135042 0
0.14461 0.00628672 0
0.163165 0 0
0.181704 0 0
0.201251 0 0
0.221042 0 0
0.241047 0 0
0.261295 0 0
0.281804 0 0
0.302556 0 0
0.323552 0 0
0.344808 0 0
0.366323 0 0
0.388098 0 0
0.410132 0 0
0.432425 0 0
0.454994 0 0
0.477806 0 0
0.500893 0 0
0.524239 0 0
0.547845 0 0
0.57171 0 0
0.595834 0 0
0.620233 0 0
0.644892 0 0
0.669825 0 0
0.695003 0 0
0 0.0546273 0
0.00674449 0.0629435 0
0.0373388 0.0674296 0
0.0685435 0.0685435 0
0.0906233 0.0602884 0
0.111437 0.0517433 0
0.131426 0.0434272 0
0.150881 0.0354314 0
0.170031 0.0277256 0
0.189868 0.0203708 0
0.209796 0.013138 0
0.229877 0.00601205 0
0.250126 0 0
0.270588 0 0
0.291264 0 0
0.312169 0 0
0.333318 0 0
0.354696 0 0
0.376318 0 0
0.398199 0 0
0.420325 0 0
0.44271 0 0
0.465339 0 0
0.488243 0 0
0.511391 0 0
0.534798 0 0
0.55848 0 0
0.582406 0 0
0.606592 0 0
0.631052 0 0
0.655772 0 0
0.680751 0 0
0.705989 0 0
0 0.0728466 0
0 0.0815747 0
0.0289464 0.0876173 0
0.0602884 0.0906233 0
0.0913863 0.0913863 0
0.113649 0.0832227 0
0.13489 0.0746777 0
0.155383 0.0662089 0
0.176043 0.0581674 0
0.196551 0.0503243 0
0.217014 0.0426642 0
0.237537 0.0351263 0
0.258152 0.0276951 0
0.27892 0.0203555 0
0.299855 0.0130617 0
0.320989 0.00578317 0
0.342321 0 0
0.363882 0 0
0.385657 0 0
0.407675 0 0
0.429938 0 0
0.45243 0 0
0.475181 0 0
0.498177 0 0
0.521416 0 0
0.544915 0 0
0.568673 0 0
0.592676 0 0
0.616953 0 0
0.641474 0 0
0.666255 0 0
0.691295 0 0
0.716609 0 0
0 0.0910506 0
0 0.100023 0
0.0210269 0.106966 0
0.0517433 0.111437 0
0.0832227 0.113649 0
0.114244 0.114244 0
0.136645 0.106157 0
0.158785 0.098024 0
0.180423 0.0898146 0
0.20174 0.0816815 0
0.222904 0.0736553 0
0.243977 0.0657816 0
0.26508 0.0580148 0
0.286244 0.05037 0
0.30753 0.0428016 0
0.328954 0.0352941 0
0.350545 0.0278325 0
0.372335 0.0204013 0
0.394324 0.0129854 0
0.41651 0.00555428 0
0.438926 0 0
0.461585 0 0
0.484459 0 0
0.507576 0 0
0.530938 0 0
0.554543 0 0
0.578408 0 0
0.602502 0 0
0.626871 0 0
0.651484 0 0
0.676341 0 0
0.701457 0 0
0.726833 0 0
0 0.10927 0
0 0.118364 0
0.0135042 0.125902 0
0.0434272 0.131426 0
0.0746777 0.13489 0
0.106157 0.136645 0
0.137636 0.137636 0
0.160784 0.130022 0
0.183398 0.121996 0
0.205585 0.113817 0
0.227497 0.105638 0
0.249241 0.0975357 0
0.270893 0.0895247 0
0.292546 0.0816052 0
0.314244 0.0737926 0
0.336034 0.0660563 0
0.357946 0.058381 0
0.380011 0.0507515 0
0.402258 0.0431678 0
0.424674 0.0355993 0
0.447288 0.0280308 0
0.47013 0.0204776 0
0.493172 0.0128939 0
0.516442 0.00531014 0
0.53994 0 0
0.563684 0 0
0.587655 0 0
0.611887 0 0
0.636347 0 0
0.661051 0 0
0.686015 0 0
0.711223 0 0
0.73669 0 0
0 0.127474 0
0 0.136675 0
0.00628672 0.14461 0
0.0354314 0.150881 0
0.0662089 0.155383 0
0.098024 0.158785 0
0.130022 0.160784 0
0.161776 0.161776 0
0.185229 0.154223 0
0.20827 0.146288 0
0.230945 0.13817 0
0.253376 0.130007 0
0.275654 0.121859 0
0.297856 0.113771 0
0.320027 0.10576 0
0.342245 0.0978256 0
0.364538 0.0899672 0
0.386923 0.0821546 0
0.409461 0.074403 0
0.432151 0.0666819 0
0.455009 0.0589761 0
0.47805 0.0513008 0
0.501289 0.0436255 0
0.524742 0.0359503 0
0.548424 0.0282597 0
0.572305 0.0205539 0
0.596429 0.0128176 0
0.620783 0.00505074 0
0.645365 0 0
0.670192 0 0
0.695262 0 0
0.720577 0 0
0.746151 0 0
0 0.145693 0
0 0.154955 0
0 0.163165 0
0.0277256 0.170031 0
0.0581674 0.176043 0
0.0898146 0.180423 0
0.121996 0.183398 0
0.154223 0.185229 0
0.186252 0.186252 0
0.21001 0.178775 0
0.233433 0.170916 0
0.25655 0.16286 0
0.279454 0.154726 0
0.302235 0.146578 0
0.324926 0.13846 0
0.347601 0.130388 0
0.370306 0.122377 0
0.393072 0.114427 0
0.415946 0.106523 0
0.438926 0.0986648 0
0.462058 0.090837 0
0.485359 0.0830396 0
0.508827 0.0752575 0
0.532494 0.0674754 0
0.556344 0.0597086 0
0.580423 0.0519265 0
0.6047 0.0441291 0
0.629206 0.0363165 0
0.653941 0.0284886 0
0.678904 0.0206149 0
0.704097 0.0127108 0
0.729534 0.00476081 0
0.755199 0 0
0 0.163912 0
0 0.17322 0
0 0.181704 0
0.0203708 0.189868 0
0.0503243 0.196551 0
0.0816815 0.20174 0
0.113817 0.205585 0
0.146288 0.20827 0
0.178775 0.21001 0
0.211063 0.211063 0
0.235126 0.203647 0
0.2589 0.195865 0
0.282429 0.187884 0
0.305776 0.179797 0
0.329 0.171664 0
0.352163 0.163546 0
0.375311 0.155444 0
0.398489 0.147387 0
0.421714 0.139376 0
0.445045 0.131395 0
0.468482 0.123461 0
0.492058 0.115557 0
0.51577 0.107668 0
0.539666 0.0998093 0
0.563745 0.0919509 0
0.588006 0.0840925 0
0.612482 0.0762493 0
0.637156 0.0683757 0
0.662043 0.060502 0
0.68716 0.0525978 0
0.712489 0.0446632 0
0.738048 0.0366979 0
0.763851 0.0287022 0
0 0.182116 0
0 0.191546 0
0 0.201251 0
0.013138 0.209796 0
0.0426642 0.217014 0
0.0736553 0.222904 0
0.105638 0.227497 0
0.13817 0.230945 0
0.170916 0.233433 0
0.203647 0.235126 0
0.236225 0.236225 0
0.260563 0.228855 0
0.284672 0.221149 0
0.308583 0.21323 0
0.332341 0.205188 0
0.356008 0.197101 0
0.379614 0.188998 0
0.403204 0.180896 0
0.426825 0.172808 0
0.450507 0.164767 0
0.474281 0.156741 0
0.498146 0.148745 0
0.522148 0.14078 0
0.546304 0.13283 0
0.570611 0.12491 0
0.595087 0.116991 0
0.61976 0.109071 0
0.644633 0.101152 0
0.669688 0.0932174 0
0.694972 0.0852827 0
0.720455 0.0773175 0
0.746166 0.069337 0
0.772107 0.061326 0
0 0.200412 0
0 0.211154 0
0 0.221042 0
0.00601205 0.229877 0
0.0351263 0.237537 0
0.0657816 0.243977 0
0.0975357 0.249241 0
0.130007 0.253376 0
0.16286 0.25655 0
0.195865 0.2589 0
0.228855 0.260563 0
0.261723 0.261723 0
0.286351 0.254398 0
0.31078 0.246754 0
0.335042 0.238911 0
0.359197 0.23093 0
0.383261 0.222889 0
0.407294 0.214801 0
0.431312 0.206714 0
0.45536 0.198627 0
0.479469 0.190555 0
0.50367 0.182513 0
0.527962 0.174487 0
0.552392 0.166476 0
0.576959 0.15848 0
0.601678 0.1505 0
0.626566 0.142535 0
0.651637 0.134569 0
0.67689 0.126589 0
0.702342 0.118608 0
0.728008 0.110628 0
0.753872 0.102617 0
0.77995 0.0945907 0
0 0.220233 0
0 0.231022 0
0 0.241047 0
0 0.250126 0
0.0276951 0.258152 0
0.0580148 0.26508 0
0.0895247 0.270893 0
0.121859 0.275654 0
0.154726 0.279454 0
0.187884 0.282429 0
0.221149 0.284672 0
0.254398 0.286351 0
0.287556 0.287556 0
0.312459 0.280278 0
0.337209 0.272709 0
0.361822 0.264927 0
0.386343 0.257008 0
0.410788 0.249012 0
0.435218 0.24097 0
0.459648 0.232898 0
0.484123 0.224826 0
0.508644 0.216754 0
0.533257 0.208682 0
0.557961 0.200641 0
0.582803 0.192599 0
0.607767 0.184588 0
0.632898 0.176562 0
0.658183 0.168551 0
0.683635 0.160555 0
0.709285 0.152529 0
0.735134 0.144518 0
0.761166 0.136492 0
0.787411 0.128435 0
0 0.240299 0
0 0.251164 0
0 0.261295 0
0 0.270588 0
0.0203555 0.27892 0
0.05037 0.286244 0
0.0816052 0.292546 0
0.113771 0.297856 0
0.146578 0.302235 0
0.179797 0.305776 0
0.21323 0.308583 0
0.246754 0.31078 0
0.280278 0.312459 0
0.313741 0.313741 0
0.338918 0.306508 0
0.363973 0.298985 0
0.388907 0.291264 0
0.413779 0.283421 0
0.438605 0.275471 0
0.463432 0.26746 0
0.488243 0.259419 0
0.513115 0.251377 0
0.538033 0.243305 0
0.563043 0.235248 0
0.588159 0.227192 0
0.613397 0.21915 0
0.638773 0.211109 0
0.664286 0.203067 0
0.689967 0.195026 0
0.715816 0.186999 0
0.741848 0.178943 0
0.768063 0.170901 0
0.794491 0.162829 0
0 0.260639 0
0 0.27155 0
0 0.281804 0
0 0.291264 0
0.0130617 0.299855 0
0.0428016 0.30753 0
0.0737926 0.314244 0
0.10576 0.320027 0
0.13846 0.324926 0
0.171664 0.329 0
0.205188 0.332341 0
0.238911 0.335042 0
0.272709 0.337209 0
0.306508 0.338918 0
0.340276 0.340276 0
0.365713 0.333074 0
0.391058 0.325597 0
0.416327 0.317952 0
0.441535 0.310155 0
0.466728 0.302266 0
0.491905 0.294301 0
0.517113 0.286305 0
0.542367 0.278279 0
0.567681 0.270237 0
0.593072 0.262181 0
0.618585 0.254124 0
0.644205 0.246082 0
0.669963 0.238025 0
0.695872 0.229984 0
0.721935 0.221927 0
0.74818 0.21387 0
0.774594 0.205814 0
0.80119 0.197726 0
0 0.281239 0
0 0.29221 0
0 0.302556 0
0 0.312169 0
0.00578317 0.320989 0
0.0352941 0.328954 0
0.0660563 0.336034 0
0.0978256 0.342245 0
0.130388 0.347601 0
0.163546 0.352163 0
0.197101 0.356008 0
0.23093 0.359197 0
0.264927 0.361822 0
0.298985 0.363973 0
0.333074 0.365713 0
0.367132 0.367132 0
0.392844 0.359976 0
0.418479 0.35256 0
0.444068 0.344961 0
0.469612 0.337224 0
0.49514 0.329397 0
0.520684 0.321477 0
0.546258 0.313527 0
0.571878 0.305531 0
0.597574 0.297505 0
0.623346 0.289479 0
0.649241 0.281437 0
0.675242 0.273396 0
0.701396 0.265339 0
0.727672 0.257282 0
0.754116 0.249226 0
0.780728 0.241169 0
0.807523 0.233082 0
0 0.302113 0
0 0.313115 0
0 0.323552 0
0 0.333318 0
0 0.342321 0
0.0278325 0.350545 0
0.058381 0.357946 0
0.0899672 0.364538 0
0.122377 0.370306 0
0.155444 0.375311 0
0.188998 0.379614 0
0.222889 0.383261 0
0.257008 0.386343 0
0.291264 0.388907 0
0.325597 0.391058 0
0.359976 0.392844 0
0.394339 0.394339 0
0.420325 0.387213 0
0.44625 0.379858 0
0.472129 0.37232 0
0.498009 0.36463 0
0.523873 0.356847 0
0.549752 0.348989 0
0.575692 0.34107 0
0.601663 0.33312 0
0.627726 0.325139 0
0.65388 0.317128 0
0.68014 0.309102 0
0.706523 0.301076 0
0.733043 0.293034 0
0.759701 0.284977 0
0.786526 0.276921 0
0.813504 0.268849 0
0 0.323247 0
0 0.334295 0
0 0.344808 0
0 0.354696 0
0 0.363882 0
0.0204013 0.372335 0
0.0507515 0.380011 0
0.0821546 0.386923 0
0.114427 0.393072 0
0.147387 0.398489 0
0.180896 0.403204 0
0.214801 0.407294 0
0.249012 0.410788 0
0.283421 0.413779 0
0.317952 0.416327 0
0.35256 0.418479 0
0.387213 0.420325 0
0.421881 0.421881 0
0.448127 0.414801 0
0.474342 0.407477 0
0.500526 0.4 0
0.526711 0.39237 0
0.552911 0.384649 0
0.579141 0.376837 0
0.605417 0.368963 0
0.631754 0.361059 0
0.658167 0.353109 0
0.684688 0.345129 0
0.711315 0.337133 0
0.738064 0.329122 0
0.76495 0.321096 0
0.791974 0.313054 0
0.819165 0.304997 0
0 0.34464 0
0 0.355749 0
0 0.366323 0
0 0.376318 0
0 0.385657 0
0.0129854 0.394324 0
0.0431678 0.402258 0
0.074403 0.409461 0
0.106523 0.415946 0
0.139376 0.421714 0
0.172808 0.426825 0
0.206714 0.431312 0
0.24097 0.435218 0
0.275471 0.438605 0
0.310155 0.441535 0
0.344961 0.444068 0
0.379858 0.44625 0
0.414801 0.448127 0
0.449775 0.449775 0
0.47628 0.442725 0
0.502785 0.435447 0
0.529259 0.428016 0
0.555764 0.420447 0
0.582269 0.412772 0
0.608835 0.40502 0
0.635447 0.397192 0
0.662135 0.389334 0
0.688899 0.381415 0
0.71577 0.37348 0
0.742748 0.365499 0
0.769863 0.357519 0
0.797101 0.349508 0
0.824491 0.341482 0
0 0.366308 0
0 0.377447 0
0 0.388098 0
0 0.398199 0
0 0.407675 0
0.00555428 0.41651 0
0.0355993 0.424674 0
0.0666819 0.432151 0
0.0986648 0.438926 0
0.131395 0.445045 0
0.164767 0.450507 0
0.198627 0.45536 0
0.232898 0.459648 0
0.26746 0.463432 0
0.302266 0.466728 0
0.337224 0.469612 0
0.37232 0.472129 0
0.407477 0.474342 0
0.442725 0.47628 0
0.478004 0.478004 0
0.504784 0.470985 0
0.531548 0.463767 0
0.558328 0.456382 0
0.585122 0.448859 0
0.611963 0.441245 0
0.638834 0.433539 0
0.665782 0.425772 0
0.692805 0.417945 0
0.719921 0.410071 0
0.747143 0.402167 0
0.774472 0.394232 0
0.801938 0.386267 0
0.829526 0.378286 0
0 0.388235 0
0 0.39942 0
0 0.410132 0
0 0.420325 0
0 0.429938 0
0 0.438926 0
0.0280308 0.447288 0
0.0589761 0.455009 0
0.090837 0.462058 0
0.123461 0.468482 0
0.156741 0.474281 0
0.190555 0.479469 0
0.224826 0.484123 0
0.259419 0.488243 0
0.294301 0.491905 0
0.329397 0.49514 0
0.36463 0.498009 0
0.4 0.500526 0
0.435447 0.502785 0
0.470985 0.504784 0
0.506569 0.506569 0
0.533608 0.499596 0
0.560662 0.492409 0
0.587732 0.485069 0
0.614816 0.477607 0
0.641962 0.470039 0
0.669169 0.462394 0
0.696437 0.454673 0
0.723796 0.446891 0
0.751247 0.439063 0
0.778805 0.431189 0
0.806485 0.423285 0
0.834287 0.415366 0
0 0.410422 0
0 0.421653 0
0 0.432425 0
0 0.44271 0
0 0.45243 0
0 0.461585 0
0.0204776 0.47013 0
0.0513008 0.47805 0
0.0830396 0.485359 0
0.115557 0.492058 0
0.148745 0.498146 0
0.182513 0.50367 0
0.216754 0.508644 0
0.251377 0.513115 0
0.286305 0.517113 0
0.321477 0.520684 0
0.356847 0.523873 0
0.39237 0.526711 0
0.428016 0.529259 0
0.463767 0.531548 0
0.499596 0.533608 0
0.535485 0.535485 0
0.562783 0.528527 0
0.590112 0.521401 0
0.617456 0.514107 0
0.644862 0.506691 0
0.672297 0.499184 0
0.699809 0.491585 0
0.727413 0.483909 0
0.755093 0.476173 0
0.782864 0.468391 0
0.810758 0.460563 0
0.838773 0.452705 0
0 0.432883 0
0 0.44416 0
0 0.454994 0
0 0.465339 0
0 0.475181 0
0 0.484459 0
0.0129091 0.493172 0
0.0436255 0.501289 0
0.0752575 0.508827 0
0.107668 0.51577 0
0.14078 0.522148 0
0.174487 0.527962 0
0.208682 0.533257 0
0.243305 0.538033 0
0.278279 0.542367 0
0.313527 0.546258 0
0.348989 0.549752 0
0.384649 0.552911 0
0.420447 0.555764 0
0.456382 0.558328 0
0.492409 0.560662 0
0.528527 0.562783 0
0.564736 0.564736 0
0.592309 0.557824 0
0.619898 0.550729 0
0.647532 0.543481 0
0.675212 0.536126 0
0.702968 0.528649 0
0.730785 0.521096 0
0.758694 0.513481 0
0.786694 0.505791 0
0.814801 0.498054 0
0.84303 0.490272 0
0 0.455604 0
0 0.466911 0
0 0.477806 0
0 0.488243 0
0 0.498177 0
0 0.507576 0
0.00531014 0.516442 0
0.0359503 0.524742 0
0.0674754 0.532494 0
0.0998093 0.539666 0
0.13283 0.546304 0
0.166476 0.552392 0
0.200641 0.557961 0
0.235248 0.563043 0
0.270237 0.567681 0
0.305531 0.571878 0
0.34107 0.575692 0
0.376837 0.579141 0
0.412772 0.582269 0
0.448859 0.585122 0
0.485069 0.587732 0
0.521401 0.590112 0
0.557824 0.592309 0
0.594339 0.594339 0
0.622156 0.587442 0
0.650019 0.580392 0
0.677943 0.57319 0
0.705913 0.565881 0
0.733959 0.558465 0
0.762081 0.550958 0
0.790311 0.543389 0
0.818616 0.535744 0
0.847059 0.528054 0
0 0.478599 0
0 0.489937 0
0 0.500893 0
0 0.511391 0
0 0.521416 0
0 0.530938 0
0 0.53994 0
0.0282597 0.548424 0
0.0597086 0.556344 0
0.0919509 0.563745 0
0.12491 0.570611 0
0.15848 0.576959 0
0.192599 0.582803 0
0.227192 0.588159 0
0.262181 0.593072 0
0.297505 0.597574 0
0.33312 0.601663 0
0.368963 0.605417 0
0.40502 0.608835 0
0.441245 0.611963 0
0.477607 0.614816 0
0.514107 0.617456 0
0.550729 0.619898 0
0.587442 0.622156 0
0.624277 0.624277 0
0.652354 0.617411 0
0.680491 0.610391 0
0.70869 0.60325 0
0.73695 0.595972 0
0.765286 0.588602 0
0.793713 0.581155 0
0.822232 0.573632 0
0.850874 0.566033 0
0 0.501839 0
0 0.513237 0
0 0.524239 0
0 0.534798 0
0 0.544915 0
0 0.554543 0
0 0.563684 0
0.0205539 0.572305 0
0.0519265 0.580423 0
0.0840925 0.588006 0
0.116991 0.595087 0
0.1505 0.601678 0
0.184588 0.607767 0
0.21915 0.613397 0
0.254124 0.618585 0
0.289479 0.623346 0
0.325139 0.627726 0
0.361059 0.631754 0
0.397192 0.635447 0
0.433539 0.638834 0
0.470039 0.641962 0
0.506691 0.644862 0
0.543481 0.647532 0
0.580392 0.650019 0
0.617411 0.652354 0
0.654551 0.654551 0
0.682887 0.647715 0
0.711299 0.640742 0
0.739773 0.633631 0
0.768322 0.626413 0
0.796948 0.619089 0
0.825666 0.611688 0
0.854505 0.604212 0
0 0.525353 0
0 0.536782 0
0 0.547845 0
0 0.55848 0
0 0.568673 0
0 0.578408 0
0 0.587655 0
0.0128176 0.596429 0
0.0441291 0.6047 0
0.0762493 0.612482 0
0.109071 0.61976 0
0.142535 0.626566 0
0.176562 0.632898 0
0.211109 0.638773 0
0.246082 0.644205 0
0.281437 0.649241 0
0.317128 0.65388 0
0.353109 0.658167 0
0.389334 0.662135 0
0.425772 0.665782 0
0.462394 0.669169 0
0.499184 0.672297 0
0.536126 0.675212 0
0.57319 0.677943 0
0.610391 0.680491 0
0.647715 0.682887 0
0.685161 0.685161 0
0.713771 0.67837 0
0.742443 0.671427 0
0.771191 0.664363 0
0.800015 0.657191 0
0.828946 0.649912 0
0.857954 0.642557 0
0 0.549142 0
0 0.560616 0
0 0.57171 0
0 0.582406 0
0 0.592676 0
0 0.602502 0
0 0.611887 0
0.00505074 0.620783 0
0.0363165 0.629206 0
