colour_boost.cube
TITLE "Made by ke5hh"
LUT_3D_SIZE 5
0 0 0
0.145693 0 0
0.302113 0 0
0.478599 0 0
0.672023 0 0
0 0.145693 0
0.186252 0.186252 0
0.370306 0.122377 0
0.556344 0.0597086 0
0.755199 0 0
0 0.302113 0
0.122377 0.370306 0
0.394339 0.394339 0
0.601663 0.33312 0
0.813504 0.268849 0
0 0.478599 0
0.0597086 0.556344 0
0.33312 0.601663 0
0.624277 0.624277 0
0.850874 0.566033 0
0 0.672023 0
0 0.755199 0
0.268849 0.813504 0
0.566033 0.850874 0
0.876036 0.876036 0
0 0 0.145693
0.186252 0 0.186252
0.370306 0 0.122377
0.556344 0 0.0597086
0.755199 0 0
0 0.186252 0.186252
0.249989 0.249989 0.249989
0.441657 0.145953 0.145953
0.631128 0.0677348 0.0677348
0.832364 0 0
0 0.370306 0.122377
0.145953 0.441657 0.145953
0.457557 0.457557 0.151217
0.670817 0.371405 0.0719921
0.883711 0.292058 0
0 0.556344 0.0597086
0.0677348 0.631128 0.0677348
0.371405 0.670817 0.0719921
0.681773 0.681773 0.073167
0.911894 0.606622 0
0 0.755199 0
0 0.832364 0
0.292058 0.883711 0
0.606622 0.911894 0
0.926909 0.926909 0
0 0 0.302113
0.122377 0 0.370306
0.394339 0 0.394339
0.601663 0 0.33312
0.813504 0 0.268864
0 0.122377 0.370306
0.145953 0.145953 0.441657
0.457557 0.151217 0.457557
0.670817 0.0719921 0.371405
0.883711 0 0.292058
0 0.394339 0.394339
0.151217 0.457557 0.457557
0.499992 0.499992 0.499992
0.71458 0.395636 0.395636
0.931548 0.307866 0.307866
0 0.601663 0.33312
0.0719921 0.670817 0.371405
0.395636 0.71458 0.395636
0.723568 0.723568 0.40061
0.955901 0.63592 0.315923
0 0.813504 0.268849
0 0.883711 0.292058
0.307866 0.931548 0.307866
0.63592 0.955901 0.315923
0.96405 0.96405 0.318608
0 0 0.478599
0.0597086 0 0.556344
0.33312 0 0.601663
0.624277 0 0.624277
0.850874 0 0.566033
0 0.0597086 0.556344
0.0677348 0.0677348 0.631128
0.371405 0.0719921 0.670817
0.681773 0.073167 0.681773
0.911894 0 0.606622
0 0.33312 0.601663
0.0719921 0.371405 0.670817
0.395636 0.395636 0.71458
0.723568 0.40061 0.723568
0.955901 0.315923 0.63592
0 0.624277 0.624277
0.073167 0.681773 0.681773
0.40061 0.723568 0.723568
0.749996 0.749996 0.749996
0.981674 0.653056 0.653056
0 0.850874 0.566033
0 0.911894 0.606622
0.315923 0.955901 0.63592
0.653056 0.981674 0.653056
0.987854 0.987854 0.65716
0 0 0.672023
0 0 0.755199
0.268849 0 0.813504
0.566033 0 0.850874
0.876036 0 0.876036
0 0 0.755199
0 0 0.832364
0.292058 0 0.883711
0.606622 0 0.911894
0.926909 0 0.926909
0 0.268849 0.813504
0 0.292058 0.883711
0.307866 0.307866 0.931548
0.63592 0.315923 0.955901
0.96405 0.318608 0.96405
0 0.566033 0.850874
0 0.606622 0.911894
0.315923 0.63592 0.955901
0.653056 0.653056 0.981674
0.987854 0.65716 0.987854
0 0.876036 0.876036
0 0.926909 0.926909
0.318608 0.96405 0.96405
0.65716 0.987854 0.987854
1 1 1
